packages/components/Atoms/Icon/assets/img/rpl_icon_hamburger.svg

<svg width="18" height="14" viewBox="0 0 18 14" overflow="visible" xmlns="http://www.w3.org/2000/svg">
  <path fill-rule="evenodd" clip-rule="evenodd" d="M0 1C0 0.447715 0.447715 0 1 0H9C9.55229 0 10 0.447715 10 1C10 1.55228 9.55229 2 9 2H1C0.447715 2 0 1.55228 0 1Z"
    fill="inherit" />
  <path fill-rule="evenodd" clip-rule="evenodd" d="M0 5C0 4.44772 0.447715 4 1 4H17C17.5523 4 18 4.44772 18 5C18 5.55228 17.5523 6 17 6H1C0.447715 6 0 5.55228 0 5Z"
    fill="inherit" />
  <path fill-rule="evenodd" clip-rule="evenodd" d="M0 9C0 8.44772 0.447715 8 1 8H13C13.5523 8 14 8.44772 14 9C14 9.55228 13.5523 10 13 10H1C0.447715 10 0 9.55228 0 9Z"
    fill="inherit" />
  <path fill-rule="evenodd" clip-rule="evenodd" d="M0 13C0 12.4477 0.447715 12 1 12H17C17.5523 12 18 12.4477 18 13C18 13.5523 17.5523 14 17 14H1C0.447715 14 0 13.5523 0 13Z"
    fill="inherit" />
</svg>

<svg width="18" height="14" overflow="visible" xmlns="http://www.w3.org/2000/svg"><path fill-rule="evenodd" clip-rule="evenodd" d="M0 1a1 1 0 011-1h8a1 1 0 110 2H1a1 1 0 01-1-1zM0 5a1 1 0 011-1h16a1 1 0 110 2H1a1 1 0 01-1-1zM0 9a1 1 0 011-1h12a1 1 0 110 2H1a1 1 0 01-1-1zM0 13a1 1 0 011-1h16a1 1 0 110 2H1a1 1 0 01-1-1z" fill="inherit"/></svg>
